X: 37618
T: Snake In The Cupboard
R: jig
M: 6/8
K: Bminor
B2 f fed|efe edc|B2 f fef|g2 g fed|
B2 f fed|efe edc|B2 f fef|a2 a fed:|
|:ABc dcd|edc dcA|Bcd ede|fed edc|
cde fef|gfe fed|cde cde|1 cde aec:|2 cde a3||
|:FGF FDD|FGF FDD|EFE EFG|AGF FDD|
[1 FGF FDD|FGF FDD|EFE EFG|ABc f3:|
[2 EFE EFG|ABc f3|gaf gef|ded fed||

